X: 18712
T: Iain MacPhail's Welcome To Shetland
R: reel
M: 4/4
K: Amajor
E2|A4 B2 c2|d4 F4|G4 B2 G2|A4 E4|F4 B3 c|d2 c2 B2 A2|A4 G3 A|F4 E4|
A4 B2 c2|d4 F4|G4 B2 G2|A4 E4|F4 B3 c|d2 F2 c2 B2|A4 A3 B|A4 e4|
a4 A2 a2|f4 d4|e4 E2 e2|c4 A4|b4 B2 b2|g4 e4|f3 g a2 f2|e2 ^e2 f2 g2|
a4 A2 a2|f4 d4|e4 E2 e2|c4 A4|F4 B3 c|d2 F2 c2 B2|A4 A3 B|A4

